X:1
T:Polska
T:efter Olof Johan Lilja från Rödeby
L:1/8
M:3/4
O:Rödeby, Blekinge
Q:1/4=90
R:Polska
Z:Peter Svensson
K:D
|: A>d f2 e2 | d>B A2 d2 | F>G E2 B2 | A>G F2 A2  |
   A>d f2 e2 | d>B A2 d2 | F>G EG EC | D2  D2 z2 :|
|: A>F DF AF | G>A B2 G2 | e>c Ac ec | d>e f2 d2  |
   A>F DF AF | G>A B2 ed | d>c BA Bc | d2  d2 z2 :|

